X:145
T:Strop the Razor
S:irtrad-l, L.LaVerne,11/97
M:6/8
L:1/8
S:David Kidd
R:Jig
Z:Lorna LaVerne
K:G
|:BGG AGG | BGG A2G | DGG G2F | DGG G2A |
BGG AGG | BGG A2G | D2E F2G | ADE FGA:|
|:dBB cAA | dBB cAA | DGG G2F | DGG G2B |
dBB cAA | dBB cAA | D2E F2G | ADE FGA:|
|:B3 cBc | d3 dBd | ~g3 gaf | gaf gdc |
~B3 cBc | d3 d2e | ~f3 fde | fag fdc:|
B2G A2F | G3 G3 |
